Papirus/48x48/apps/half-life2.svg

<svg xmlns="http://www.w3.org/2000/svg" width="48" height="48" version="1">
 <path fill="#f37b21" d="m24 4c-11.023 0-20 8.978-20 20 0 11.024 8.978 20 20 20s20-8.977 20-20c0-11.022-8.977-20-20-20z"/>
 <path opacity=".2" d="m24 9a16 16 0 0 0 -16 16 16 16 0 0 0 16 16 16 16 0 0 0 16 -16 16 16 0 0 0 -16 -16zm-6.418 4.7109h6.1309l7.0391 17.902 3.0957-1.0078 1.0312 3.4668-6.676 1.928-4.49-11.383-6.584 10.375h-4.1289l9.1953-14.85-1.0312-2.9336h-3.582v-3.498z"/>
 <path fill="#fff" d="m24 8a16 16 0 0 0 -16 16 16 16 0 0 0 16 16 16 16 0 0 0 16 -16 16 16 0 0 0 -16 -16zm-6.418 4.7109h6.1309l7.0391 17.902 3.0957-1.0078 1.0312 3.4668-6.676 1.928-4.49-11.383-6.584 10.375h-4.1289l9.1953-14.85-1.0312-2.9336h-3.582v-3.498z"/>
 <path fill="#fff" opacity=".2" d="m24 4c-11.023 0-20 8.978-20 20 0 0.168 0.0076 0.333 0.0117 0.5 0.2673-10.792 9.1333-19.5 19.988-19.5s19.721 8.708 19.988 19.5c0.004-0.167 0.012-0.332 0.012-0.5 0-11.022-8.977-20-20-20z"/>
 <path opacity=".2" d="m4.0117 24.5c-0.0041 0.167-0.0117 0.332-0.0117 0.5 0 11.024 8.978 20 20 20s20-8.977 20-20c0-0.168-0.008-0.333-0.012-0.5-0.267 10.793-9.133 19.5-19.988 19.5s-19.721-8.707-19.988-19.5z"/>
 <circle opacity=".2" cx="36" cy="37" r="11"/>
 <circle fill="#42a1cd" cx="36" cy="36" r="11"/>
 <g fill="#fff" transform="translate(1.0001 .99959)">
  <path d="m39.417 41h-8.3826v-1.8372l2.9395-3.1702q0.55542-0.59814 1.0083-1.1023 0.45288-0.50415 0.77759-0.98267t0.50415-0.97412q0.17944-0.49561 0.17944-1.0681 0-0.63232-0.38452-0.98267-0.37598-0.35034-1.0168-0.35034-0.67505 0-1.2988 0.33325-0.62378 0.33325-1.3074 0.94849l-1.436-1.7q0.38452-0.35034 0.80322-0.6665 0.4187-0.32471 0.92285-0.57251t1.1108-0.39307q0.60669-0.15381 1.3586-0.15381 0.89722 0 1.6064 0.2478 0.71777 0.2478 1.2219 0.70923 0.50415 0.45288 0.76904 1.1023 0.27344 0.64941 0.27344 1.4612 0 0.73486-0.25635 1.4099-0.25635 0.6665-0.70068 1.3159-0.44434 0.64087-1.0339 1.2817-0.58105 0.63232-1.2476 1.2903l-1.5039 1.5125v0.11963h5.0928v2.2217z"/>
 </g>
</svg>

<svg xmlns="http://www.w3.org/2000/svg" width="48" height="48" version="1">
 <path style="fill:#f37b21" d="M 24,4 C 12.977,4 4,12.978 4,24 4,35.024 12.978,44 24,44 35.022,44 44,35.023 44,24 44,12.978 35.023,4 24,4 Z"/>
 <path style="opacity:0.2" d="M 24,9 A 16,16 0 0 0 8,25 16,16 0 0 0 24,41 16,16 0 0 0 40,25 16,16 0 0 0 24,9 Z m -6.418,4.7109 6.1309,0 7.0391,17.902 3.0957,-1.0078 1.0312,3.4668 -6.676,1.928 -4.49,-11.383 -6.584,10.375 -4.1289,0 9.1953,-14.85 -1.0312,-2.9336 -3.582,0 0,-3.498 z"/>
 <path style="fill:#ffffff" d="M 24,8 A 16,16 0 0 0 8,24 16,16 0 0 0 24,40 16,16 0 0 0 40,24 16,16 0 0 0 24,8 Z m -6.418,4.7109 6.1309,0 7.0391,17.902 3.0957,-1.0078 1.0312,3.4668 -6.676,1.928 -4.49,-11.383 -6.584,10.375 -4.1289,0 9.1953,-14.85 -1.0312,-2.9336 -3.582,0 0,-3.498 z"/>
 <path style="opacity:0.2;fill:#ffffff" d="M 24,4 C 12.977,4 4,12.978 4,24 4,24.168 4.0076,24.333 4.0117,24.5 4.279,13.708 13.145,5 23.9997,5 c 10.8547,0 19.721,8.708 19.988,19.5 0.004,-0.167 0.012,-0.332 0.012,-0.5 0,-11.022 -8.977,-20 -20,-20 z"/>
 <path style="opacity:0.2" d="M 4.0117,24.5 C 4.0076,24.667 4,24.832 4,25 4,36.024 12.978,45 24,45 35.022,45 44,36.023 44,25 44,24.832 43.992,24.667 43.988,24.5 43.721,35.293 34.855,44 24,44 13.145,44 4.279,35.293 4.012,24.5 Z"/>
 <circle cx="36" cy="36" r="11" style="opacity:0.2"/>
 <circle cx="36" cy="35" r="11" style="fill:#42a1cd"/>
 <path style="fill:#ffffff;fill-rule:evenodd" d="m 36,30.000001 c 0,0 -0.70875,-0.014 -1.44727,0.3555 C 33.81422,30.724701 33,31.666701 33,33.000001 l 2,0 c 0,-1 1,-1 1,-1 0,0 1,0 1,1 0,0.5278 -0.1396,0.8229 -0.40625,1.1562 -0.26665,0.3334 -0.69336,0.668 -1.19336,1.043 -0.5,0.375 -1.07329,0.7904 -1.55664,1.3946 C 33.3604,37.197901 33,38.027801 33,39.000001 L 33,40 l 6,0 0,-1.999999 -3.64844,0 c 0.0313,-0.044 0.0187,-0.1112 0.0547,-0.1562 0.26665,-0.3334 0.69336,-0.668 1.19336,-1.043 0.5,-0.375 1.07329,-0.7904 1.55664,-1.3946 0.48335,-0.6041 0.84375,-1.434 0.84375,-2.4062 0,-1.3333 -0.81422,-2.2753 -1.55273,-2.6445 C 36.70875,29.986201 36,30.000001 36,30.000001 Z"/>
</svg>
